static/img/kroki/6f38825a4131ea952043ba713f7f4243.svg

<?xml version="1.0" encoding="us-ascii" standalone="no"?><svg xmlns="http://www.w3.org/2000/svg" xmlns:xlink="http://www.w3.org/1999/xlink" contentStyleType="text/css" height="645px" preserveAspectRatio="none" style="width:1164px;height:645px;" version="1.1" viewBox="0 0 1164 645" width="1164px" zoomAndPan="magnify"><defs/><g><!--class azure_network_virtual_network_gateway_connection--><g id="elem_azure_network_virtual_network_gateway_connection"><rect codeLine="23" fill="#3D176E" height="39.7891" id="azure_network_virtual_network_gateway_connection" rx="2.5" ry="2.5" style="stroke:#000D19;stroke-width:0.5;" width="491" x="7" y="599.55"/><ellipse cx="22" cy="619.4445" fill="#ADD1B2" rx="11" ry="11" style="stroke:#181818;stroke-width:1.0;"/><path d="M24.9688,625.0852 Q24.3906,625.382 23.75,625.5227 Q23.1094,625.6789 22.4063,625.6789 Q19.9063,625.6789 18.5781,624.0383 Q17.2656,622.382 17.2656,619.257 Q17.2656,616.132 18.5781,614.4758 Q19.9063,612.8195 22.4063,612.8195 Q23.1094,612.8195 23.75,612.9758 Q24.4063,613.132 24.9688,613.4289 L24.9688,616.1477 Q24.3438,615.5695 23.75,615.3039 Q23.1563,615.0227 22.5313,615.0227 Q21.1875,615.0227 20.5,616.1008 Q19.8125,617.1633 19.8125,619.257 Q19.8125,621.3508 20.5,622.4289 Q21.1875,623.4914 22.5313,623.4914 Q23.1563,623.4914 23.75,623.2258 Q24.3438,622.9445 24.9688,622.3664 L24.9688,625.0852 Z " fill="#000000"/><text fill="#D9B8FF" font-family="Helvetica" font-size="17" lengthAdjust="spacing" textLength="449" x="41" y="625.3298">azure_network_virtual_network_gateway_connection</text></g><!--class azure_network_virtual_wan_vpn_connection--><g id="elem_azure_network_virtual_wan_vpn_connection"><rect codeLine="26" fill="#3D176E" height="39.7891" id="azure_network_virtual_wan_vpn_connection" rx="2.5" ry="2.5" style="stroke:#000D19;stroke-width:0.5;" width="416" x="532.5" y="599.55"/><ellipse cx="547.5" cy="619.4445" fill="#ADD1B2" rx="11" ry="11" style="stroke:#181818;stroke-width:1.0;"/><path d="M550.4688,625.0852 Q549.8906,625.382 549.25,625.5227 Q548.6094,625.6789 547.9063,625.6789 Q545.4063,625.6789 544.0781,624.0383 Q542.7656,622.382 542.7656,619.257 Q542.7656,616.132 544.0781,614.4758 Q545.4063,612.8195 547.9063,612.8195 Q548.6094,612.8195 549.25,612.9758 Q549.9063,613.132 550.4688,613.4289 L550.4688,616.1477 Q549.8438,615.5695 549.25,615.3039 Q548.6563,615.0227 548.0313,615.0227 Q546.6875,615.0227 546,616.1008 Q545.3125,617.1633 545.3125,619.257 Q545.3125,621.3508 546,622.4289 Q546.6875,623.4914 548.0313,623.4914 Q548.6563,623.4914 549.25,623.2258 Q549.8438,622.9445 550.4688,622.3664 L550.4688,625.0852 Z " fill="#000000"/><text fill="#D9B8FF" font-family="Helvetica" font-size="17" lengthAdjust="spacing" textLength="374" x="566.5" y="625.3298">azure_network_virtual_wan_vpn_connection</text></g><!--class gcp_vpn_tunnel--><g id="elem_gcp_vpn_tunnel"><rect codeLine="29" fill="#3D176E" height="39.7891" id="gcp_vpn_tunnel" rx="2.5" ry="2.5" style="stroke:#000D19;stroke-width:0.5;" width="174" x="983.5" y="599.55"/><ellipse cx="998.5" cy="619.4445" fill="#ADD1B2" rx="11" ry="11" style="stroke:#181818;stroke-width:1.0;"/><path d="M1001.4688,625.0852 Q1000.8906,625.382 1000.25,625.5227 Q999.6094,625.6789 998.9063,625.6789 Q996.4063,625.6789 995.0781,624.0383 Q993.7656,622.382 993.7656,619.257 Q993.7656,616.132 995.0781,614.4758 Q996.4063,612.8195 998.9063,612.8195 Q999.6094,612.8195 1000.25,612.9758 Q1000.9063,613.132 1001.4688,613.4289 L1001.4688,616.1477 Q1000.8438,615.5695 1000.25,615.3039 Q999.6563,615.0227 999.0313,615.0227 Q997.6875,615.0227 997,616.1008 Q996.3125,617.1633 996.3125,619.257 Q996.3125,621.3508 997,622.4289 Q997.6875,623.4914 999.0313,623.4914 Q999.6563,623.4914 1000.25,623.2258 Q1000.8438,622.9445 1001.4688,622.3664 L1001.4688,625.0852 Z " fill="#000000"/><text fill="#D9B8FF" font-family="Helvetica" font-size="17" lengthAdjust="spacing" textLength="132" x="1017.5" y="625.3298">gcp_vpn_tunnel</text></g><!--class resource--><g id="elem_resource"><rect codeLine="32" fill="#3D176E" height="310.7578" id="resource" rx="2.5" ry="2.5" style="stroke:#000D19;stroke-width:0.5;" width="227" x="627" y="7"/><ellipse cx="695.75" cy="26.8945" fill="#ADD1B2" rx="11" ry="11" style="stroke:#181818;stroke-width:1.0;"/><path d="M698.7188,32.5352 Q698.1406,32.832 697.5,32.9727 Q696.8594,33.1289 696.1563,33.1289 Q693.6563,33.1289 692.3281,31.4883 Q691.0156,29.832 691.0156,26.707 Q691.0156,23.582 692.3281,21.9258 Q693.6563,20.2695 696.1563,20.2695 Q696.8594,20.2695 697.5,20.4258 Q698.1563,20.582 698.7188,20.8789 L698.7188,23.5977 Q698.0938,23.0195 697.5,22.7539 Q696.9063,22.4727 696.2813,22.4727 Q694.9375,22.4727 694.25,23.5508 Q693.5625,24.6133 693.5625,26.707 Q693.5625,28.8008 694.25,29.8789 Q694.9375,30.9414 696.2813,30.9414 Q696.9063,30.9414 697.5,30.6758 Q698.0938,30.3945 698.7188,29.8164 L698.7188,32.5352 Z " fill="#000000"/><text fill="#D9B8FF" font-family="Helvetica" font-size="17" lengthAdjust="spacing" textLength="71" x="721.25" y="32.7798">resource</text><line style="stroke:#000D19;stroke-width:0.5;" x1="628" x2="853" y1="46.7891" y2="46.7891"/><text fill="#D9B8FF" font-family="sans-serif" font-size="14" font-weight="bold" lengthAdjust="spacing" textLength="29" x="638" y="68.7842">age</text><text fill="#D9B8FF" font-family="sans-serif" font-size="14" lengthAdjust="spacing" textLength="66" x="667" y="68.7842">: duration</text><text fill="#D9B8FF" font-family="sans-serif" font-size="14" font-weight="bold" lengthAdjust="spacing" textLength="43" x="638" y="95.0811">atime</text><text fill="#D9B8FF" font-family="sans-serif" font-size="14" lengthAdjust="spacing" textLength="70" x="681" y="95.0811">: datetime</text><text fill="#D9B8FF" font-family="sans-serif" font-size="14" font-weight="bold" lengthAdjust="spacing" textLength="43" x="638" y="121.3779">ctime</text><text fill="#D9B8FF" font-family="sans-serif" font-size="14" lengthAdjust="spacing" textLength="70" x="681" y="121.3779">: datetime</text><text fill="#D9B8FF" font-family="sans-serif" font-size="14" font-weight="bold" lengthAdjust="spacing" textLength="14" x="638" y="147.6748">id</text><text fill="#D9B8FF" font-family="sans-serif" font-size="14" lengthAdjust="spacing" textLength="48" x="652" y="147.6748">: string</text><text fill="#D9B8FF" font-family="sans-serif" font-size="14" font-weight="bold" lengthAdjust="spacing" textLength="33" x="638" y="173.9717">kind</text><text fill="#D9B8FF" font-family="sans-serif" font-size="14" lengthAdjust="spacing" textLength="48" x="671" y="173.9717">: string</text><text fill="#D9B8FF" font-family="sans-serif" font-size="14" font-weight="bold" lengthAdjust="spacing" textLength="90" x="638" y="200.2686">last_access</text><text fill="#D9B8FF" font-family="sans-serif" font-size="14" lengthAdjust="spacing" textLength="66" x="728" y="200.2686">: duration</text><text fill="#D9B8FF" font-family="sans-serif" font-size="14" font-weight="bold" lengthAdjust="spacing" textLength="90" x="638" y="226.5654">last_update</text><text fill="#D9B8FF" font-family="sans-serif" font-size="14" lengthAdjust="spacing" textLength="66" x="728" y="226.5654">: duration</text><text fill="#D9B8FF" font-family="sans-serif" font-size="14" font-weight="bold" lengthAdjust="spacing" textLength="48" x="638" y="252.8623">mtime</text><text fill="#D9B8FF" font-family="sans-serif" font-size="14" lengthAdjust="spacing" textLength="70" x="686" y="252.8623">: datetime</text><text fill="#D9B8FF" font-family="sans-serif" font-size="14" font-weight="bold" lengthAdjust="spacing" textLength="43" x="638" y="279.1592">name</text><text fill="#D9B8FF" font-family="sans-serif" font-size="14" lengthAdjust="spacing" textLength="48" x="681" y="279.1592">: string</text><text fill="#D9B8FF" font-family="sans-serif" font-size="14" font-weight="bold" lengthAdjust="spacing" textLength="34" x="638" y="305.4561">tags</text><text fill="#D9B8FF" font-family="sans-serif" font-size="14" lengthAdjust="spacing" textLength="171" x="672" y="305.4561">: dictionary[string, string]</text></g><!--class tunnel--><g id="elem_tunnel"><rect codeLine="44" fill="#3D176E" height="39.7891" id="tunnel" rx="2.5" ry="2.5" style="stroke:#000D19;stroke-width:0.5;" width="97" x="692" y="438.76"/><ellipse cx="707" cy="458.6545" fill="#ADD1B2" rx="11" ry="11" style="stroke:#181818;stroke-width:1.0;"/><path d="M709.9688,464.2952 Q709.3906,464.592 708.75,464.7327 Q708.1094,464.8889 707.4063,464.8889 Q704.9063,464.8889 703.5781,463.2483 Q702.2656,461.592 702.2656,458.467 Q702.2656,455.342 703.5781,453.6858 Q704.9063,452.0295 707.4063,452.0295 Q708.1094,452.0295 708.75,452.1858 Q709.4063,452.342 709.9688,452.6389 L709.9688,455.3577 Q709.3438,454.7795 708.75,454.5139 Q708.1563,454.2327 707.5313,454.2327 Q706.1875,454.2327 705.5,455.3108 Q704.8125,456.3733 704.8125,458.467 Q704.8125,460.5608 705.5,461.6389 Q706.1875,462.7014 707.5313,462.7014 Q708.1563,462.7014 708.75,462.4358 Q709.3438,462.1545 709.9688,461.5764 L709.9688,464.2952 Z " fill="#000000"/><text fill="#D9B8FF" font-family="Helvetica" font-size="17" lengthAdjust="spacing" textLength="55" x="726" y="464.5398">tunnel</text></g><!--reverse link tunnel to azure_network_virtual_network_gateway_connection--><g id="link_tunnel_azure_network_virtual_network_gateway_connection"><path codeLine="47" d="M674.8035,481.0299 C584.7635,510.3299 409.37,567.4 311.8,599.15 " fill="none" id="tunnel-backto-azure_network_virtual_network_gateway_connection" style="stroke:#FFAF37;stroke-width:2.0;"/><polygon fill="none" points="691.92,475.46,672.9468,475.3244,676.6601,486.7354,691.92,475.46" style="stroke:#FFAF37;stroke-width:2.0;"/></g><!--reverse link tunnel to azure_network_virtual_wan_vpn_connection--><g id="link_tunnel_azure_network_virtual_wan_vpn_connection"><path codeLine="48" d="M740.5,496.81 C740.5,527.33 740.5,568.66 740.5,599.22 " fill="none" id="tunnel-backto-azure_network_virtual_wan_vpn_connection" style="stroke:#FFAF37;stroke-width:2.0;"/><polygon fill="none" points="740.5,478.81,734.5,496.81,746.5,496.81,740.5,478.81" style="stroke:#FFAF37;stroke-width:2.0;"/></g><!--reverse link tunnel to gcp_vpn_tunnel--><g id="link_tunnel_gcp_vpn_tunnel"><path codeLine="49" d="M796.85,486.7746 C860.32,517.3146 966.93,568.61 1030.39,599.14 " fill="none" id="tunnel-backto-gcp_vpn_tunnel" style="stroke:#FFAF37;stroke-width:2.0;"/><polygon fill="none" points="780.63,478.97,794.2485,492.1813,799.4515,481.3679,780.63,478.97" style="stroke:#FFAF37;stroke-width:2.0;"/></g><!--reverse link resource to tunnel--><g id="link_resource_tunnel"><path codeLine="50" d="M740.5,335.85 C740.5,384.14 740.5,413.37 740.5,438.68 " fill="none" id="resource-backto-tunnel" style="stroke:#FFAF37;stroke-width:2.0;"/><polygon fill="none" points="740.5,317.85,734.5,335.85,746.5,335.85,740.5,317.85" style="stroke:#FFAF37;stroke-width:2.0;"/></g><!--SRC=[bPDDZzem48Rl-HMMzeQA14KjKFMoYrIr5rGjlQrMqM1FWaLYH-C94Mpxt-iG6fc4Z-xDVjzdlZp9HYiKc1Uy5pdcQoGNkQqs1H3auf78LWkRMH8FIGB9PDerlrd3Tu4bv2Y-OxP3rXAwnA-Dbbk3pecFWVK4SfkIBOrgqZE1STv2mm6roC2vHsRIwv8nQ4RDrxCawPBTf0yJDPv-nXvcII6TaD5efCRpBdAtrCsvMsAb3oZ6uQCjBMElpLw98tMpove8ckmD-i-_skDFK4gRL7mAjEUc9p98P_fg0yfMDPr0vi8oZf7Gyhx0HMygdCzKChq8_xW6Hx9-EW67aZ0so9MbRRpJn2LaxJq5nWhsiRJ6e6HjZNYBeZytOoimyQumLs9IMHnTBhsRXGwXioL9zDfW02aE1b-4AWdg3BN2EcyqtrDzzfgye6bL2yv_o2RrL_yavuAlnJ58wN-JJeMZKnPrhewJNwXZe97Qn0nfar4VXmRQlpJUXnFpseuQ3dywV_qz70xVlOt_YUxluppgV2DHkuR6FQb_0G00]--></g></svg>

<svg xmlns="http://www.w3.org/2000/svg" width="1164" height="645" viewBox="0 0 1164 645"><rect width="491" height="39.789" x="7" y="599.55" fill="#3D176E" rx="2.5" ry="2.5" style="stroke:#000d19;stroke-width:.5"/><circle cx="22" cy="619.444" r="11" fill="#ADD1B2" style="stroke:#181818;stroke-width:1"/><path d="M24.969 625.085q-.578.297-1.219.438-.64.156-1.344.156-2.5 0-3.828-1.64-1.312-1.657-1.312-4.782t1.312-4.781q1.328-1.657 3.828-1.657.703 0 1.344.157.656.156 1.219.453v2.719q-.625-.579-1.219-.844-.594-.281-1.219-.281-1.343 0-2.031 1.078-.687 1.062-.687 3.156t.687 3.172q.688 1.062 2.031 1.062.625 0 1.219-.265.594-.282 1.219-.86z"/><text x="41" y="625.33" fill="#D9B8FF" font-family="Helvetica" font-size="17" textLength="449">azure_network_virtual_network_gateway_connection</text><rect width="416" height="39.789" x="532.5" y="599.55" fill="#3D176E" rx="2.5" ry="2.5" style="stroke:#000d19;stroke-width:.5"/><circle cx="547.5" cy="619.444" r="11" fill="#ADD1B2" style="stroke:#181818;stroke-width:1"/><path d="M550.469 625.085q-.578.297-1.219.438-.64.156-1.344.156-2.5 0-3.828-1.64-1.312-1.657-1.312-4.782t1.312-4.781q1.328-1.657 3.828-1.657.703 0 1.344.157.656.156 1.219.453v2.719q-.625-.579-1.219-.844-.594-.281-1.219-.281-1.343 0-2.031 1.078-.687 1.062-.687 3.156t.687 3.172q.688 1.062 2.031 1.062.625 0 1.219-.265.594-.282 1.219-.86z"/><text x="566.5" y="625.33" fill="#D9B8FF" font-family="Helvetica" font-size="17" textLength="374">azure_network_virtual_wan_vpn_connection</text><rect width="174" height="39.789" x="983.5" y="599.55" fill="#3D176E" rx="2.5" ry="2.5" style="stroke:#000d19;stroke-width:.5"/><circle cx="998.5" cy="619.444" r="11" fill="#ADD1B2" style="stroke:#181818;stroke-width:1"/><path d="M1001.469 625.085q-.578.297-1.219.438-.64.156-1.344.156-2.5 0-3.828-1.64-1.312-1.657-1.312-4.782t1.312-4.781q1.328-1.657 3.828-1.657.703 0 1.344.157.656.156 1.219.453v2.719q-.625-.579-1.219-.844-.594-.281-1.219-.281-1.343 0-2.031 1.078-.687 1.062-.687 3.156t.687 3.172q.688 1.062 2.031 1.062.625 0 1.219-.265.594-.282 1.219-.86z"/><text x="1017.5" y="625.33" fill="#D9B8FF" font-family="Helvetica" font-size="17" textLength="132">gcp_vpn_tunnel</text><rect width="227" height="310.758" x="627" y="7" fill="#3D176E" rx="2.5" ry="2.5" style="stroke:#000d19;stroke-width:.5"/><circle cx="695.75" cy="26.895" r="11" fill="#ADD1B2" style="stroke:#181818;stroke-width:1"/><path d="M698.719 32.535q-.578.297-1.219.438-.64.156-1.344.156-2.5 0-3.828-1.64-1.312-1.657-1.312-4.782t1.312-4.781q1.328-1.656 3.828-1.656.703 0 1.344.156.656.156 1.219.453v2.719q-.625-.578-1.219-.844-.594-.281-1.219-.281-1.343 0-2.031 1.078-.687 1.062-.687 3.156t.687 3.172q.688 1.062 2.031 1.062.625 0 1.219-.265.594-.281 1.219-.86z"/><text x="721.25" y="32.78" fill="#D9B8FF" font-family="Helvetica" font-size="17" textLength="71">resource</text><path d="M628 46.789h225" style="stroke:#000d19;stroke-width:.5"/><text x="638" y="68.784" fill="#D9B8FF" font-family="sans-serif" font-size="14" font-weight="bold" textLength="29">age</text><text x="667" y="68.784" fill="#D9B8FF" font-family="sans-serif" font-size="14" textLength="66">: duration</text><text x="638" y="95.081" fill="#D9B8FF" font-family="sans-serif" font-size="14" font-weight="bold" textLength="43">atime</text><text x="681" y="95.081" fill="#D9B8FF" font-family="sans-serif" font-size="14" textLength="70">: datetime</text><text x="638" y="121.378" fill="#D9B8FF" font-family="sans-serif" font-size="14" font-weight="bold" textLength="43">ctime</text><text x="681" y="121.378" fill="#D9B8FF" font-family="sans-serif" font-size="14" textLength="70">: datetime</text><text x="638" y="147.675" fill="#D9B8FF" font-family="sans-serif" font-size="14" font-weight="bold" textLength="14">id</text><text x="652" y="147.675" fill="#D9B8FF" font-family="sans-serif" font-size="14" textLength="48">: string</text><text x="638" y="173.972" fill="#D9B8FF" font-family="sans-serif" font-size="14" font-weight="bold" textLength="33">kind</text><text x="671" y="173.972" fill="#D9B8FF" font-family="sans-serif" font-size="14" textLength="48">: string</text><text x="638" y="200.269" fill="#D9B8FF" font-family="sans-serif" font-size="14" font-weight="bold" textLength="90">last_access</text><text x="728" y="200.269" fill="#D9B8FF" font-family="sans-serif" font-size="14" textLength="66">: duration</text><text x="638" y="226.565" fill="#D9B8FF" font-family="sans-serif" font-size="14" font-weight="bold" textLength="90">last_update</text><text x="728" y="226.565" fill="#D9B8FF" font-family="sans-serif" font-size="14" textLength="66">: duration</text><text x="638" y="252.862" fill="#D9B8FF" font-family="sans-serif" font-size="14" font-weight="bold" textLength="48">mtime</text><text x="686" y="252.862" fill="#D9B8FF" font-family="sans-serif" font-size="14" textLength="70">: datetime</text><text x="638" y="279.159" fill="#D9B8FF" font-family="sans-serif" font-size="14" font-weight="bold" textLength="43">name</text><text x="681" y="279.159" fill="#D9B8FF" font-family="sans-serif" font-size="14" textLength="48">: string</text><text x="638" y="305.456" fill="#D9B8FF" font-family="sans-serif" font-size="14" font-weight="bold" textLength="34">tags</text><text x="672" y="305.456" fill="#D9B8FF" font-family="sans-serif" font-size="14" textLength="171">: dictionary[string, string]</text><rect width="97" height="39.789" x="692" y="438.76" fill="#3D176E" rx="2.5" ry="2.5" style="stroke:#000d19;stroke-width:.5"/><circle cx="707" cy="458.654" r="11" fill="#ADD1B2" style="stroke:#181818;stroke-width:1"/><path d="M709.969 464.295q-.578.297-1.219.438-.64.156-1.344.156-2.5 0-3.828-1.64-1.312-1.657-1.312-4.782t1.312-4.781q1.328-1.656 3.828-1.656.703 0 1.344.156.656.156 1.219.453v2.719q-.625-.579-1.219-.844-.594-.281-1.219-.281-1.343 0-2.031 1.078-.687 1.062-.687 3.156t.687 3.172q.688 1.062 2.031 1.062.625 0 1.219-.265.594-.281 1.219-.86z"/><text x="726" y="464.54" fill="#D9B8FF" font-family="Helvetica" font-size="17" textLength="55">tunnel</text><g fill="none"><path d="M674.804 481.03c-90.04 29.3-265.434 86.37-363.004 118.12" style="stroke:#ffaf37;stroke-width:2"/><path d="m691.92 475.46-18.973-.136 3.713 11.411z" style="stroke:#ffaf37;stroke-width:2"/></g><path fill="none" d="M740.5 496.81v102.41m0-120.41-6 18h12zm56.35 7.965c63.47 30.54 170.08 81.835 233.54 112.365M780.63 478.97l13.619 13.211 5.202-10.813zM740.5 335.85v102.83m0-120.83-6 18h12z" style="stroke:#ffaf37;stroke-width:2"/></svg>
